svgs/sharp-regular/arrows-cross.svg

<svg xmlns="http://www.w3.org/2000/svg" viewBox="0 0 448 512"><!--! Font Awesome Pro 6.6.0 by @fontawesome - https://fontawesome.com License - https://fontawesome.com/license (Commercial License) Copyright 2024 Fonticons, Inc. --><path d="M280 32l-24 0 0 48 24 0 86.1 0L18.2 427.8l-17 17 33.9 33.9 17-17L400 113.9l0 86.1 0 24 48 0 0-24 0-144 0-24-24 0L280 32zM52.2 50.2l-17-17L1.3 67.2l17 17 147 147 34.3-33.6L52.2 50.2zM366.1 432L280 432l-24 0 0 48 24 0 144 0 24 0 0-24 0-144 0-24-48 0 0 24 0 86.1L278.7 276.8l-34.3 33.6L366.1 432z"/></svg>

<svg xmlns="http://www.w3.org/2000/svg" viewBox="0 0 448 512"><!--! Font Awesome Pro 6.4.2 by @fontawesome - https://fontawesome.com License - https://fontawesome.com/license (Commercial License) Copyright 2023 Fonticons, Inc. --><path d="M280 32H256V80h24 86.1L18.2 427.8l-17 17 33.9 33.9 17-17L400 113.9V200v24h48V200 56 32H424 280zM52.2 50.2l-17-17L1.3 67.2l17 17 147 147 34.3-33.6L52.2 50.2zM366.1 432H280 256v48h24H424h24V456 312 288H400v24 86.1L278.7 276.8l-34.3 33.6L366.1 432z"/></svg>
